assets/google.svg

<svg width="157" height="51" viewBox="0 0 157 51" fill="none" xmlns="http://www.w3.org/2000/svg">
<path d="M152.11 31.1682L156.466 34.0427C155.052 36.104 151.671 39.6406 145.825 39.6406C138.567 39.6406 133.161 34.0806 133.161 27.0077C133.161 19.4813 138.624 14.3752 145.214 14.3752C151.843 14.3752 155.09 19.5945 156.141 22.4123L156.714 23.8497L139.637 30.8467C140.935 33.3809 142.96 34.6668 145.825 34.6668C148.691 34.6668 150.677 33.2674 152.11 31.1682ZM138.72 26.611L150.124 21.9208C149.493 20.3513 147.621 19.2357 145.386 19.2357C142.54 19.2357 138.586 21.732 138.72 26.611Z" fill="white" fill-opacity="0.2"/>
<path d="M124.927 1.49685H130.428V38.487H124.927V1.49685Z" fill="white" fill-opacity="0.2"/>
<path d="M116.255 15.3586H121.565V37.825C121.565 47.148 116.007 50.9869 109.435 50.9869C103.246 50.9869 99.5216 46.8644 98.127 43.5173L102.998 41.5125C103.876 43.5737 105.997 46.0135 109.435 46.0135C113.657 46.0135 116.255 43.4225 116.255 38.5815V36.7661H116.064C114.803 38.2788 112.396 39.6403 109.34 39.6403C102.96 39.6403 97.1141 34.1372 97.1141 27.0458C97.1141 19.9161 102.96 14.3565 109.34 14.3565C112.377 14.3565 114.803 15.6992 116.064 17.1742H116.255V15.3586ZM116.637 27.0458C116.637 22.5827 113.638 19.3299 109.817 19.3299C105.959 19.3299 102.711 22.5827 102.711 27.0458C102.711 31.4518 105.959 34.6478 109.817 34.6478C113.638 34.6669 116.637 31.4518 116.637 27.0458Z" fill="white" fill-opacity="0.2"/>
<path d="M66.9136 26.9512C66.9136 34.232 61.1831 39.5837 54.1533 39.5837C47.1239 39.5837 41.3931 34.2132 41.3931 26.9512C41.3931 19.6327 47.1239 14.2998 54.1533 14.2998C61.1831 14.2998 66.9136 19.6327 66.9136 26.9512ZM61.3358 26.9512C61.3358 22.4128 58.0118 19.292 54.1533 19.292C50.2949 19.292 46.9709 22.4128 46.9709 26.9512C46.9709 31.4519 50.2949 34.6103 54.1533 34.6103C58.0121 34.6103 61.3358 31.4519 61.3358 26.9512Z" fill="white" fill-opacity="0.2"/>
<path d="M94.7841 27.0077C94.7841 34.2886 89.0533 39.6403 82.0238 39.6403C74.9941 39.6403 69.2636 34.2883 69.2636 27.0077C69.2636 19.6892 74.9941 14.3752 82.0238 14.3752C89.0533 14.3752 94.7841 19.6704 94.7841 27.0077ZM89.187 27.0077C89.187 22.4693 85.8633 19.3486 82.0045 19.3486C78.1461 19.3486 74.8221 22.4693 74.8221 27.0077C74.8221 31.5085 78.1461 34.6669 82.0045 34.6669C85.8823 34.6669 89.187 31.4897 89.187 27.0077Z" fill="white" fill-opacity="0.2"/>
<path d="M20.4189 34.0995C12.4149 34.0995 6.14966 27.7075 6.14966 19.7837C6.14966 11.8602 12.4149 5.46819 20.4189 5.46819C24.7361 5.46819 27.8877 7.15119 30.2182 9.30715L34.0579 5.50613C30.8106 2.42367 26.4744 0.0782776 20.4189 0.0782776C9.45432 0.0785812 0.227814 8.9292 0.227814 19.7837C0.227814 30.6388 9.45432 39.4891 20.4189 39.4891C26.3407 39.4891 30.8106 37.5602 34.3063 33.9672C37.8974 30.4117 39.0053 25.4192 39.0053 21.3723C39.0053 20.1052 38.8526 18.8004 38.6805 17.836H20.4189V23.0932H33.4275C33.0454 26.384 31.9949 28.6343 30.4476 30.1658C28.5755 32.0383 25.6149 34.0995 20.4189 34.0995Z" fill="white" fill-opacity="0.2"/>
</svg>

<svg width="157" height="51" fill="none" xmlns="http://www.w3.org/2000/svg"><path d="m152.11 31.168 4.356 2.875c-1.414 2.061-4.795 5.598-10.641 5.598-7.258 0-12.664-5.56-12.664-12.633 0-7.527 5.463-12.633 12.053-12.633 6.629 0 9.876 5.22 10.927 8.037l.573 1.438-17.077 6.997c1.298 2.534 3.323 3.82 6.188 3.82 2.866 0 4.852-1.4 6.285-3.499Zm-13.39-4.557 11.404-4.69c-.631-1.57-2.503-2.685-4.738-2.685-2.846 0-6.8 2.496-6.666 7.375ZM124.927 1.497h5.501v36.99h-5.501V1.497Zm-8.672 13.862h5.31v22.466c0 9.323-5.558 13.162-12.13 13.162-6.189 0-9.913-4.123-11.308-7.47l4.871-2.005c.878 2.062 2.999 4.502 6.437 4.502 4.222 0 6.82-2.592 6.82-7.433v-1.815h-.191c-1.261 1.513-3.668 2.874-6.724 2.874-6.38 0-12.226-5.503-12.226-12.594 0-7.13 5.846-12.69 12.226-12.69 3.037 0 5.463 1.343 6.724 2.818h.191V15.36Zm.382 11.687c0-4.463-2.999-7.716-6.82-7.716-3.858 0-7.106 3.253-7.106 7.716 0 4.406 3.248 7.602 7.106 7.602 3.821.019 6.82-3.196 6.82-7.602Zm-49.723-.095c0 7.281-5.73 12.633-12.76 12.633-7.03 0-12.76-5.37-12.76-12.633 0-7.318 5.73-12.651 12.76-12.651 7.03 0 12.76 5.333 12.76 12.651Zm-5.578 0c0-4.538-3.324-7.659-7.183-7.659-3.858 0-7.182 3.12-7.182 7.66 0 4.5 3.324 7.658 7.182 7.658 3.86 0 7.183-3.158 7.183-7.659Zm33.448.057c0 7.28-5.73 12.632-12.76 12.632-7.03 0-12.76-5.352-12.76-12.632 0-7.319 5.73-12.633 12.76-12.633 7.03 0 12.76 5.295 12.76 12.633Zm-5.597 0c0-4.539-3.324-7.66-7.183-7.66-3.858 0-7.182 3.121-7.182 7.66 0 4.5 3.324 7.659 7.182 7.659 3.878 0 7.183-3.177 7.183-7.66ZM20.419 34.1c-8.004 0-14.27-6.393-14.27-14.316 0-7.924 6.266-14.316 14.27-14.316 4.317 0 7.469 1.683 9.8 3.84l3.839-3.802C30.81 2.424 26.474.078 20.418.078 9.455.078.229 8.93.229 19.784c0 10.855 9.226 19.705 20.19 19.705 5.923 0 10.393-1.929 13.888-5.522 3.591-3.555 4.7-8.548 4.7-12.595a21.08 21.08 0 0 0-.325-3.536H20.419v5.257h13.009c-.383 3.291-1.433 5.541-2.98 7.073-1.872 1.872-4.833 3.933-10.03 3.933Z" fill="#fff" fill-opacity=".2"/></svg>
